!!!COM: Palestrina, Giovanni Perluigi da
!!!OPR: Missa Memor esto
!!!OMD: Credo
!!!OTL: Et in Spiritum
**kern	**kern	**kern	**kern	**kern
*Ibass	*Itenor	*Itenor	*Icalto	*Icant
!Bassus	!Tenor 2	!Tenor 1	!Altus	!Cantus
*clefF4	*clefGv2	*clefGv2	*clefG2	*clefG2
*k[b-]	*k[b-]	*k[b-]	*k[b-]	*k[b-]
*G:dor	*G:dor	*G:dor	*G:dor	*G:dor
*M4/2	*M4/2	*M4/2	*M4/2	*M4/2
=126	=126	=126	=126	=126
1D	1A	1d	1f#	0r
2D	2A	2d	2f#	.
[2G	[2B-	[2d	[2g	.
=127	=127	=127	=127	=127
4G]	4B-]	4d]	4g]	0r
4G	4B-	4d	4g	.
2G	2B-	2d	2g	.
1F	1c	1f	1a	.
=128	=128	=128	=128	=128
2D	2d	2f	2b-	0r
1F	1c	1f	1a	.
2G	2B-	2d	2g	.
=129	=129	=129	=129	=129
2D	2A	2d	2f	0r
2D	2f	2d	2a	.
2C#	2e	2e	2a	.
4D	[2d	[2f	[2a	.
4E	.	.	.	.
=130	=130	=130	=130	=130
4F	2d]	2f]	2a]	0r
4G	.	.	.	.
2A	2c#	2e	2a	.
2D	1d	2.f	1a	.
[2d	.	.	.	.
.	.	4d	.	.
=131	=131	=131	=131	=131
2d]	1A	1e	1a	1r
2c#	.	.	.	.
2d	2r	2f#	2r	1a
2D	2d	2f#	2a	.
=132	=132	=132	=132	=132
2G	2d	2g	2d	2b
1C	1c	1e	1g	1cc
2C	2c	2e	2g	2cc
=133	=133	=133	=133	=133
2.F	2.A	2.f	2.c	2.cc
4F	4A	4f	4c	4cc
1BB-	1B-	1d	1f	1dd
=134	=134	=134	=134	=134
0r	2A	2e	0r	2cc
.	2G	2g	.	2b-
.	1d	1f#	.	1a
=135	=135	=135	=135	=135
1.G	1d	2g	2r	1g
.	.	1d	1b-	.
.	2G	.	.	1r
2F#	2A	2d	2a	.
=136	=136	=136	=136	=136
1G	1B-	1d	1g	0r
2D	2B-	2d	2g	.
2D	2A	2d	2f	.
=137	=137	=137	=137	=137
2.E-	2.G	2B-	2.g	1r
.	.	2c	.	.
4E-	4G	.	4g	.
1D	1A	2d	2f	2r
.	.	[2d	[2a	[2ff
=138	=138	=138	=138	=138
0r	2d	2d]	2a]	2ff]
.	2e	2c#	2a	1ee
.	[1f	1d	1a	.
.	.	.	.	[2dd
=139	=139	=139	=139	=139
0r	2f]	1A	1a	2dd]
.	2e	.	.	2cc#
.	1d	1B-	2f	1dd
.	.	.	2g	.
=140	=140	=140	=140	=140
2r	2e	2A	1a	2cc#
2d	2f	2a	.	2dd
2d	2f	2.a	2r	2dd
2c#	2e	.	2a	2ee
.	.	4g	.	.
=141	=141	=141	=141	=141
1d	4d	4f	1.a	1ff
.	4e	4e	.	.
.	4f	1d	.	.
.	4g	.	.	.
1A	2a	.	.	2ff
.	2A	2c#	2a	[2ee
=142	=142	=142	=142	=142
1B-	2d	2d	2f	4ee]
.	.	.	.	4dd
.	2G	2d	2g	1dd
1A	2r	1e	1a	.
.	2A	.	.	2cc#
=143	=143	=143	=143	=143
2r	1B-	1d	2f	1dd
1G	.	.	1b-	.
.	2.d	2r	.	2g
2F#	.	[2d	2a	2a
.	4c	.	.	.
=144	=144	=144	=144	=144
2G	4B-	2d]	2g	2.b-
.	4A	.	.	.
2G	2G	2d	2g	.
.	.	.	.	4cc
1D	2A	2d	2f	1dd
.	2F	2d	2a	.
=145	=145	=145	=145	=145
1E-	2.G	1B-	2g	2r
.	.	.	2.b-	1g
.	4A	.	.	.
1E-	2B-	2G	.	.
.	.	.	4a	.
.	2c	2G	[2g	2g
=146	=146	=146	=146	=146
0D	0d	2B-	2g]	0dd
.	.	4A	4f#	.
.	.	4G	4e	.
.	.	1A	1f#	.
=147	=147	=147	=147	=147
1G	1d	2G	2g	2b-
.	.	2g	2b-	2dd
1r	1r	2f	2a	2dd
.	.	2e	2g	2ee
=148	=148	=148	=148	=148
0r	0r	1d	1a	1ff
.	.	2c	2a	2ee
.	.	2B-	2b-	2dd
=149	=149	=149	=149	=149
1r	1r	2f	2a	2cc
.	.	2g	2g	2b-
2r	2r	1d	2f	2a
2D	2d	.	2f	2a
=150	=150	=150	=150	=150
2D	2d	0r	2f	2b-
2C#	2e	.	2e	2a
2.D	2.f	.	2.d	2.a
4D	4f	.	4d	4a
=151	=151	=151	=151	=151
2A	2e	0r	2c	2a
2D	2d	.	2f	2a
4A	2c	.	2e	2a
8B-	.	.	.	.
8c	.	.	.	.
[2d	2B-	.	2d	2g
=152	=152	=152	=152	=152
2d]	1A	1r	1e	1a
2c#	.	.	.	.
2d	1f#	2r	1a	2r
2D	.	2d	.	2dd
=153	=153	=153	=153	=153
2.G	2.g	2.B-	2.b-	2.dd
4G	4g	4B-	4b-	4dd
2G	2g	2B-	2b-	2dd
2A	2e	2c	2a	2cc
=154	=154	=154	=154	=154
2B-	2d	2d	2.f	2b-
2B-	2d	2B-	.	2dd
.	.	.	4g	.
1F	1f	1c	2a	1cc
.	.	.	2a	.
=155	=155	=155	=155	=155
2BB-	1f	1d	2.b-	2b-
1B-	.	.	.	1dd
.	.	.	4a	.
.	1r	1r	4f	.
.	.	.	4g	.
2A	.	.	2a	2cc
=156	=156	=156	=156	=156
2B-	1r	1r	1g	2dd
2c	.	.	.	2ee
2.d	2r	2r	1f	2.ff
.	[2a	[2f	.	.
8c	.	.	.	8ee
8B-	.	.	.	8dd
=157	=157	=157	=157	=157
4A	2a]	2f]	0r	1cc
4B-	.	.	.	.
2c	2g	2e	.	.
2F	2a	2f	.	1cc
2c	2e	2g	.	.
=158	=158	=158	=158	=158
0F	2f	2a	0r	1cc
.	2c	2a	.	.
.	4d	2f	.	1a
.	4c	.	.	.
.	[2c	2f	.	.
=159	=159	=159	=159	=159
1G	2c]	1d	1r	1g
.	2B	.	.	.
1C	1c	1e	2r	1g
.	.	.	[2g	.
=160	=160	=160	=160	=160
2r	1A	1c	2g]	0r
1c	.	.	2f#	.
.	1G	1d	[1g	.
2B	.	.	.	.
=161	=161	=161	=161	=161
1c	1g	1e	2g]	1r
.	.	.	1c	.
1F	1a	1f	.	2r
.	.	.	2f	[2cc
=162	=162	=162	=162	=162
2.G	1g	0r	2d	2cc]
.	.	.	2e	2b
4G	.	.	.	.
2A	1c	.	2e	1cc
2A	.	.	[2f	.
=163	=163	=163	=163	=163
2B-	2d	1r	4f]	1f
.	.	.	4e	.
2B-	2d	.	4d	.
.	.	.	4c	.
2G	2e-	2r	1B-	2.g
2G	2d	[2g	.	.
.	.	.	.	4g
=164	=164	=164	=164	=164
1D	1d	2g]	1A	2a
.	.	2f#	.	2a
1G	2d	1g	1r	1b-
.	[2g	.	.	.
=165	=165	=165	=165	=165
0r	2g]	1d	2.a	2a
.	2f#	.	.	2.dd
.	.	.	4a	.
.	1g	2.G	2b	.
.	.	.	.	4dd
.	.	.	2b	2ee
.	.	4G	.	.
=166	=166	=166	=166	=166
0r	1c	2A	4cc	2ee
.	.	.	4b-	.
.	.	2A	4a	1ff
.	.	.	4g	.
.	2.d	1B-	2f	.
.	.	.	2g	[2dd
.	4d	.	.	.
=167	=167	=167	=167	=167
0r	2e	1A	1a	2dd]
.	2f	.	.	1cc
.	2e	2c	2.g	.
.	2d	2G	.	2b-
.	.	.	4f	.
=168	=168	=168	=168	=168
1r	2c	1A	2e	1a
.	2.d	.	2f	.
2r	.	1A	1e	2a
.	4c	.	.	.
2A	2c	.	.	2a
=169	=169	=169	=169	=169
1B-	2.f	2r	1d	1dd
.	.	2d	.	.
.	4e	.	.	.
2B-	2d	1f	1r	2dd
2A	[2a	.	.	2cc
=170	=170	=170	=170	=170
2F	2a]	2f	0r	2a
2G	4g	2e	.	2b-
.	4f	.	.	.
2A	2e	2c	.	2a
2B-	2d	2d	.	2g
=171	=171	=171	=171	=171
2c	1r	2e	2r	1a
2d	.	2f	2a	.
1G	2r	[1g	1b-	1r
.	2d	.	.	.
=172	=172	=172	=172	=172
0r	1e-	1g]	2.b-	2r
.	.	.	.	2g
.	.	.	4a	.
.	2e-	1r	2g	1b-
.	2d	.	2f	.
=173	=173	=173	=173	=173
0r	2B-	0r	2g	2b-
.	2c	.	1a	2a
.	2d	.	.	2f
.	2e-	.	2g	2g
=174	=174	=174	=174	=174
1r	0d	0r	2f#	2a
.	.	.	1g	2b-
1D	.	.	.	2a
.	.	.	2f#	2a
=175	=175	=175	=175	=175
1E-	2.B-	1G	1g	2g
.	.	.	.	2.b-
.	4G	.	.	.
2E-	2g	1B-	2r	.
.	.	.	.	4cc
2D	4f	.	4d	[2dd
.	4e	.	4e	.
=176	=176	=176	=176	=176
2BB-	2d	2B-	4f	2dd]
.	.	.	4g	.
2C	2e	2A	1a	4cc
.	.	.	.	4b-
2D	2f	2F	.	4a
.	.	.	.	4b-
2E-	2c	2G	2g	2cc
=177	=177	=177	=177	=177
0D	2r	2A	2f#	[0dd
.	2.d	2B-	1g	.
.	.	2A	.	.
.	4c	.	.	.
.	2A	[2d	2f#	.
=178	=178	=178	=178	=178
1G	1B	2d]	[0g	1dd]
.	.	1G	.	.
1C	1c	.	.	1ee-
.	.	[2c	.	.
=179	=179	=179	=179	=179
[0G	[0d	2c]	1g_	[0dd
.	.	4B	.	.
.	.	4A	.	.
.	.	1B	1g_	.
=180	=180	=180	=180	=180
0G]	0d]	0B	0g]	0dd]
==	==	==	==	==
*-	*-	*-	*-	*-
!!!CDT: 1525/^1526/-1594/2/2
!!!OCY: Italia
!!!AGN: Mass (Parody)
!!!AST: renaissance, vocal
!!!ASW: Motet 1572 (Palestrina)
!!!PWK: Masses, Book 8
!!!RNB: Cadence finals: A,D
!!!YOR: Le Opere Complete, v. 24, p. 86
!!!YOO: Rome, Italy: Fratelli Scalera
!!!END: 1992//
!!!EED: John Miller
!!!YEC: Copyright 2000, John Miller
!!!YEN: United States of America
!!!YEM: Rights to all derivative electronic formats reserved.
!!!YEM: Refer to licensing agreement for further details.
!!!YEM: This file must be accompanied by the licensing agreement.
!!!YEM: A copy of the licensing agreement may be found at http://www.music-cog.ohio-state.edu/HumdrumDatabases/Palestrina/license.txt
!!!EMD: converted to Humdrum by Bret Aarden
